X: 2
T: MacArthur Road
R: reel
M: 4/4
L: 1/8
K: Emaj
|:B2 Bc Bcef|g2 ga gfec|f2 fg fece|aAgA feec|B2 Bc Bcef|g2 ga gfec|f2 fg feec|1Bcef e3 c:|2 Bcef e3 g|||:beee bec'e|beee fece|f2 fg fece|aAgA feeg|1 beee bec'e|beee fece|f2 fg feec|Bcef e2-e g:|2 B2 BcBcef|g2 ga gfec|f2 fg feec|Bcef e2-e2||


Tune 2221	Setting 15588

